!!!OTL: Die verunglueckte Muellerstochter Da drunten in dem tiefen Tale,
!!!ARE: Europa, Mitteleuropa, Deutschland (BRD), Hessen, Nassau
!!!YOR: 5, S. 186
!!    1894 gedruckt in Berlin
!!!SCT: Q0106
!!!YEM: Copyright 1995, estate of Helmut Schaffrath.
**kern
*ICvox
*Ivox
*M4/4
*k[b-]
*F:
{8f
8g
=1
8a
8a
8a
8a
8a
8cc
8b-
8a
=2
8a
8g
4g
4r}
{8g
8a
=3
4b-
8b-
8b-
8b-
8dd
8cc
8b-
=4
8b-
8a
4a
4r}
{4cc
=5
4cc
8a
8cc
4cc
8a
8cc
=6
4ff
8ee
8dd
4cc
8r}
{8cc
=7
4cc
8ff
8cc
4cc
8a
8cc
=8
4b-
8g
8b-
4a}
{4cc
=9
4cc
8a
8cc
4cc
8a
8cc
=10
4ff
8ee
8dd
4cc
8r}
{8cc
=11
4cc
8ff
8cc
4cc
8a
8cc
=12
4b-
8g
8b-
4a}
==
!!!AGN: Ballade, Unfall, Tod
!!!ONB: ESAC (Essen Associative Code) Database: BALLADE
!!!AMT: simple quadruple
!!!AIN: vox
!!!EED: Helmut Schaffrath
!!!EEV: 1.0
*-
